images/heart-icon.svg

<svg width="21" height="19" viewBox="0 0 21 19" fill="none" xmlns="http://www.w3.org/2000/svg">
<path d="M18.8005 1.95849L18.8023 1.96024C20.7437 3.88233 20.7462 7.03905 18.8005 8.98466L10.361 17.4238L1.94628 9.00951C1.94569 9.00892 1.94511 9.00832 1.94453 9.00772C1.0188 8.06185 0.5 6.81051 0.5 5.48217C0.5 4.14855 1.00122 2.89987 1.94265 1.95849L1.94266 1.95849L1.94441 1.95672C3.86629 0.0157068 7.02186 0.0131363 8.96748 1.97793L8.96922 1.97967L10.0074 3.01784L10.3646 3.37496L10.7181 3.01425L11.7545 1.95673C13.6994 0.0138381 16.8563 0.014425 18.8005 1.95849Z" stroke="black"/>
</svg>

<svg xmlns="http://www.w3.org/2000/svg" width="21" height="19" fill="none" xmlns:v="https://vecta.io/nano"><path d="M18.801 1.958l.002.002c1.941 1.922 1.944 5.079-.002 7.024l-8.439 8.439L1.946 9.01A5.02 5.02 0 0 1 .5 5.482c0-1.334.501-2.582 1.443-3.524h0l.002-.002C3.866.016 7.022.013 8.967 1.978l.002.002 1.038 1.038.357.357.354-.361 1.036-1.058a4.99 4.99 0 0 1 7.046.002z" stroke="#000"/></svg>
